contributed-vectors/coinatmradar.svg

<?xml version="1.0" encoding="UTF-8" standalone="no"?>
<svg
   width="192"
   height="192"
   version="1.1"
   viewBox="0 0 192 192"
   id="svg14"
   sodipodi:docname="coinatmradar.svg"
   inkscape:version="1.1 (c4e8f9ed74, 2021-05-24)"
   xmlns:inkscape="http://www.inkscape.org/namespaces/inkscape"
   xmlns:sodipodi="http://sodipodi.sourceforge.net/DTD/sodipodi-0.dtd"
   xmlns="http://www.w3.org/2000/svg"
   xmlns:svg="http://www.w3.org/2000/svg"
   xmlns:rdf="http://www.w3.org/1999/02/22-rdf-syntax-ns#"
   xmlns:cc="http://creativecommons.org/ns#"
   xmlns:dc="http://purl.org/dc/elements/1.1/">
  <metadata
     id="metadata20">
    <rdf:RDF>
      <cc:Work
         rdf:about="">
        <dc:format>image/svg+xml</dc:format>
        <dc:type
           rdf:resource="http://purl.org/dc/dcmitype/StillImage" />
      </cc:Work>
    </rdf:RDF>
  </metadata>
  <defs
     id="defs18" />
  <sodipodi:namedview
     pagecolor="#ffffff"
     bordercolor="#666666"
     borderopacity="1"
     objecttolerance="10"
     gridtolerance="10"
     guidetolerance="10"
     inkscape:pageopacity="0"
     inkscape:pageshadow="2"
     inkscape:window-width="1904"
     inkscape:window-height="1005"
     id="namedview16"
     showgrid="false"
     inkscape:zoom="2.3828026"
     inkscape:cx="87.292167"
     inkscape:cy="103.23977"
     inkscape:window-x="8"
     inkscape:window-y="39"
     inkscape:window-maximized="1"
     inkscape:current-layer="svg14"
     inkscape:document-rotation="0"
     inkscape:pagecheckerboard="0" />
  <circle
     cx="96"
     cy="96"
     r="88"
     opacity="0.63"
     id="circle4"
     style="fill:#73ada4;stroke:none;stroke-width:1;stroke-miterlimit:4;stroke-dasharray:none;opacity:1;fill-opacity:1" />
  <path
     opacity="0.63"
     id="circle6"
     style="opacity:1;fill:none;stroke:#ffffff;stroke-width:6.9;stroke-miterlimit:4;stroke-dasharray:none;stroke-opacity:1"
     sodipodi:type="arc"
     sodipodi:cx="95.938927"
     sodipodi:cy="96"
     sodipodi:rx="36.588001"
     sodipodi:ry="36.627083"
     sodipodi:start="0.65557511"
     sodipodi:end="5.4554767"
     sodipodi:arc-type="arc"
     d="M 124.94214,118.32843 A 36.588001,36.627083 0 0 1 85.660569,131.15214 36.588001,36.627083 0 0 1 59.486354,99.148484 36.588001,36.627083 0 0 1 79.797868,63.129762 36.588001,36.627083 0 0 1 120.69308,69.028438"
     sodipodi:open="true" />
  <path
     opacity="0.63"
     id="circle6-6"
     style="opacity:1;fill:none;stroke:#ffffff;stroke-width:6.9;stroke-miterlimit:4;stroke-dasharray:none;stroke-opacity:1;stroke-linecap:round"
     sodipodi:type="arc"
     sodipodi:cx="95.938927"
     sodipodi:cy="96"
     sodipodi:rx="36.588001"
     sodipodi:ry="36.627083"
     sodipodi:start="0.66107968"
     sodipodi:end="5.4554767"
     sodipodi:arc-type="arc"
     sodipodi:open="true"
     d="M 124.81893,118.48791 A 36.588001,36.627083 0 0 1 85.515689,131.10936 36.588001,36.627083 0 0 1 59.477836,99.048037 36.588001,36.627083 0 0 1 79.843069,63.107557 36.588001,36.627083 0 0 1 120.69308,69.028438" />
  <path
     opacity="0.63"
     id="circle6-6-5"
     style="opacity:1;fill:none;stroke:#ffffff;stroke-width:6.9;stroke-miterlimit:4;stroke-dasharray:none;stroke-opacity:1;stroke-linecap:round"
     sodipodi:type="arc"
     sodipodi:cx="95.936188"
     sodipodi:cy="95.99778"
     sodipodi:rx="55.645184"
     sodipodi:ry="55.70462"
     sodipodi:start="0.66531726"
     sodipodi:end="5.5244009"
     sodipodi:arc-type="arc"
     sodipodi:open="true"
     d="M 139.71342,130.38473 A 55.645184,55.70462 0 0 1 78.998675,149.05918 55.645184,55.70462 0 0 1 40.351758,98.600108 55.645184,55.70462 0 0 1 74.12561,44.750471 55.645184,55.70462 0 0 1 136.31639,57.670782" />
  <path
     opacity="0.63"
     id="circle6-6-5-3"
     style="opacity:1;fill:none;stroke:#ffffff;stroke-width:6.9;stroke-miterlimit:4;stroke-dasharray:none;stroke-opacity:1;stroke-linecap:round"
     sodipodi:type="arc"
     sodipodi:cx="95.933937"
     sodipodi:cy="95.995895"
     sodipodi:rx="75.165161"
     sodipodi:ry="75.245445"
     sodipodi:start="0.655241"
     sodipodi:end="5.5418287"
     sodipodi:arc-type="arc"
     sodipodi:open="true"
     d="M 155.53248,141.84673 A 75.165161,75.245445 0 0 1 73.284102,167.74383 75.165161,75.245445 0 0 1 20.838442,99.234798 75.165161,75.245445 0 0 1 67.203636,26.464013 75.165161,75.245445 0 0 1 151.37224,45.183466" />
  <rect
     style="opacity:1;fill:#ffffff;fill-opacity:1;stroke:#ffffff;stroke-width:2.60178;stroke-linecap:round;stroke-linejoin:round;stroke-opacity:1;paint-order:markers fill stroke"
     id="rect1600"
     width="97.86924"
     height="4.1790276"
     x="9.9909153"
     y="131.67953"
     transform="rotate(-40.915531)" />
  <circle
     style="opacity:1;fill:#ffffff;fill-opacity:1;stroke:none;stroke-width:6.9;stroke-linecap:round;stroke-linejoin:round;stroke-miterlimit:4;stroke-dasharray:none;stroke-opacity:1;paint-order:markers fill stroke"
     id="path2830"
     cx="64.954178"
     cy="28.231274"
     r="10.656621" />
  <circle
     style="fill:#ffffff;fill-opacity:1;stroke:none;stroke-width:6.9;stroke-linecap:round;stroke-linejoin:round;stroke-miterlimit:4;stroke-dasharray:none;stroke-opacity:1;paint-order:markers fill stroke"
     id="path2830-2"
     cx="66.361984"
     cy="142.24832"
     r="10.656621" />
  <circle
     style="fill:#ffffff;fill-opacity:1;stroke:none;stroke-width:6.9;stroke-linecap:round;stroke-linejoin:round;stroke-miterlimit:4;stroke-dasharray:none;stroke-opacity:1;paint-order:markers fill stroke"
     id="path2830-9"
     cx="136.49425"
     cy="96.851967"
     r="10.656621" />
</svg>

<svg xmlns="http://www.w3.org/2000/svg" width="192" height="192"><circle cx="96" cy="96" r="88" opacity=".63" style="fill:#73ada4;stroke:none;stroke-width:1;stroke-miterlimit:4;stroke-dasharray:none;opacity:1;fill-opacity:1"/><path d="M124.942 118.328a36.588 36.627 0 0 1-39.281 12.824 36.588 36.627 0 0 1-26.175-32.004A36.588 36.627 0 0 1 79.798 63.13a36.588 36.627 0 0 1 40.895 5.898" opacity=".63" style="opacity:1;fill:none;stroke:#fff;stroke-width:6.9;stroke-miterlimit:4;stroke-dasharray:none;stroke-opacity:1"/><path d="M124.819 118.488a36.588 36.627 0 0 1-39.303 12.621 36.588 36.627 0 0 1-26.038-32.061 36.588 36.627 0 0 1 20.365-35.94 36.588 36.627 0 0 1 40.85 5.92" opacity=".63" style="opacity:1;fill:none;stroke:#fff;stroke-width:6.9;stroke-miterlimit:4;stroke-dasharray:none;stroke-opacity:1;stroke-linecap:round"/><path d="M139.713 130.385A55.645 55.705 0 0 1 79 149.059 55.645 55.705 0 0 1 40.352 98.6a55.645 55.705 0 0 1 33.774-53.85 55.645 55.705 0 0 1 62.19 12.92" opacity=".63" style="opacity:1;fill:none;stroke:#fff;stroke-width:6.9;stroke-miterlimit:4;stroke-dasharray:none;stroke-opacity:1;stroke-linecap:round"/><path d="M155.532 141.847a75.165 75.245 0 0 1-82.248 25.897 75.165 75.245 0 0 1-52.446-68.51 75.165 75.245 0 0 1 46.366-72.77 75.165 75.245 0 0 1 84.168 18.72" opacity=".63" style="opacity:1;fill:none;stroke:#fff;stroke-width:6.9;stroke-miterlimit:4;stroke-dasharray:none;stroke-opacity:1;stroke-linecap:round"/><path d="M9.991 131.68h97.869v4.179H9.991z" style="opacity:1;fill:#fff;fill-opacity:1;stroke:#fff;stroke-width:2.60178;stroke-linecap:round;stroke-linejoin:round;stroke-opacity:1;paint-order:markers fill stroke" transform="rotate(-40.916)"/><circle cx="64.954" cy="28.231" r="10.657" style="opacity:1;fill:#fff;fill-opacity:1;stroke:none;stroke-width:6.9;stroke-linecap:round;stroke-linejoin:round;stroke-miterlimit:4;stroke-dasharray:none;stroke-opacity:1;paint-order:markers fill stroke"/><circle cx="66.362" cy="142.248" r="10.657" style="fill:#fff;fill-opacity:1;stroke:none;stroke-width:6.9;stroke-linecap:round;stroke-linejoin:round;stroke-miterlimit:4;stroke-dasharray:none;stroke-opacity:1;paint-order:markers fill stroke"/><circle cx="136.494" cy="96.852" r="10.657" style="fill:#fff;fill-opacity:1;stroke:none;stroke-width:6.9;stroke-linecap:round;stroke-linejoin:round;stroke-miterlimit:4;stroke-dasharray:none;stroke-opacity:1;paint-order:markers fill stroke"/></svg>
